icons/svg/login.svg

﻿<?xml version="1.0" encoding="utf-8"?>
<!DOCTYPE svg PUBLIC "-//W3C//DTD SVG 1.1//EN" "http://www.w3.org/Graphics/SVG/1.1/DTD/svg11.dtd">
<svg xmlns="http://www.w3.org/2000/svg" xmlns:xlink="http://www.w3.org/1999/xlink" version="1.1" baseProfile="full" width="24" height="24" viewBox="0 0 24.00 24.00" enable-background="new 0 0 24.00 24.00" xml:space="preserve">
	<path fill="#000000" fill-opacity="1" stroke-width="0.2" stroke-linejoin="round" d="M 10,17.25L 10,14L 3.00002,14L 3.00002,10L 10,10L 10,6.75L 15.25,12L 10,17.25 Z M 7.99999,2.00003L 17,2.00005C 18.1045,2.00005 19,2.89546 19,4.00003L 19,20C 19,21.1046 18.1045,22 17,22L 7.99999,22C 6.89542,22 5.99999,21.1046 5.99999,20L 6,16L 7.99999,16L 7.99999,20L 17,20L 17,4.00003L 7.99999,4.00002L 7.99999,8.00001L 6,8.00001L 5.99999,4.00002C 5.99999,2.89545 6.89542,2.00003 7.99999,2.00003 Z "/>
</svg>

<svg xmlns="http://www.w3.org/2000/svg" version="1.1" baseProfile="full" width="24" height="24" viewBox="0 0 24.00 24.00" xml:space="preserve"><path fill="#000" fill-opacity="1" stroke-width=".2" stroke-linejoin="round" d="M10 17.25V14H3v-4h7V6.75L15.25 12 10 17.25zM8 2h9c1.105 0 2 .895 2 2v16c0 1.105-.895 2-2 2H8c-1.105 0-2-.895-2-2v-4h2v4h9V4H8v4H6V4c0-1.105.895-2 2-2z"/></svg>
